src/assets/send-chat-icon.svg

<svg width="40" height="37" viewBox="0 0 40 37" fill="none" xmlns="http://www.w3.org/2000/svg">
<path d="M4.14429 21.1723L16.5909 18.6829C17.7022 18.4609 17.7022 18.0995 16.5909 17.8775L4.14429 15.3881C3.40293 15.2401 2.68089 14.5174 2.53289 13.7767L0.0434409 1.33011C-0.179236 0.218055 0.476127 -0.298635 1.50617 0.17672L39.4872 17.7062C40.1733 18.0229 40.1733 18.5376 39.4872 18.8542L1.50617 36.3837C0.476127 36.859 -0.179236 36.3424 0.0434409 35.2303L2.53289 22.7837C2.68089 22.043 3.40293 21.3203 4.14429 21.1723Z" fill="#fff"/>
</svg>

<svg width="40" height="37" fill="none" xmlns="http://www.w3.org/2000/svg"><path d="M4.144 21.172l12.447-2.49c1.111-.221 1.111-.582 0-.804l-12.447-2.49c-.741-.148-1.463-.87-1.611-1.611L.043 1.33C-.179.218.476-.299 1.506.177l37.981 17.53c.686.316.686.83 0 1.147l-37.98 17.53c-1.03.475-1.686-.042-1.464-1.154l2.49-12.446c.148-.741.87-1.464 1.611-1.612z" fill="#fff"/></svg>
